Sources/FrostedUI/Resources/Icons.xcassets/stats16.imageset/stats-16.svg

<svg width="16" height="16" viewBox="0 0 16 16" fill="none" xmlns="http://www.w3.org/2000/svg" data-fui-icon="true">
  <path
    d="M1.25 2C1.66421 2 2 2.33579 2 2.75V12C2 12.5523 2.44772 13 3 13H14.25C14.6642 13 15 13.3358 15 13.75C15 14.1642 14.6642 14.5 14.25 14.5H3C1.61929 14.5 0.5 13.3807 0.5 12V2.75C0.5 2.33579 0.835786 2 1.25 2ZM13.25 4C13.6642 4 14 4.33579 14 4.75V7.25C14 7.66421 13.6642 8 13.25 8C12.8358 8 12.5 7.66421 12.5 7.25V6.56055L9.53027 9.53027C9.23738 9.82317 8.76262 9.82317 8.46973 9.53027L6.75 7.81055L4.03027 10.5303C3.73738 10.8232 3.26262 10.8232 2.96973 10.5303C2.67683 10.2374 2.67683 9.76262 2.96973 9.46973L6.21973 6.21973L6.27637 6.16797C6.57095 5.92766 7.00567 5.94512 7.28027 6.21973L9 7.93945L11.4395 5.5H10.75C10.3358 5.5 10 5.16421 10 4.75C10 4.33579 10.3358 4 10.75 4H13.25Z"
    fill="currentColor"
  />
</svg>

<svg xmlns="http://www.w3.org/2000/svg" width="16" height="16" fill="none" data-fui-icon="true" viewBox="0 0 16 16"><path fill="currentColor" d="M1.25 2a.75.75 0 0 1 .75.75V12a1 1 0 0 0 1 1h11.25a.75.75 0 0 1 0 1.5H3A2.5 2.5 0 0 1 .5 12V2.75A.75.75 0 0 1 1.25 2m12 2a.75.75 0 0 1 .75.75v2.5a.75.75 0 0 1-1.5 0v-.69L9.53 9.53a.75.75 0 0 1-1.06 0L6.75 7.81l-2.72 2.72a.75.75 0 1 1-1.06-1.06l3.25-3.25.056-.052a.75.75 0 0 1 1.004.052L9 7.94l2.44-2.44h-.69a.75.75 0 0 1 0-1.5z"/></svg>
